X:71
T:Quick Step. RHu.071
T:New Sylph,aka. RHu.071
T:Bill Hall’s #1,aka. RHu.071
S:R.Hughes MS,1823,Whitchurch,Shrops.
A:Whitchurch , Shropshire
Z:Neil Brookes 2006
M:2/4
L:1/8
Q:1/4=100
R:Country Dance
K:G
B|B/c/B/A/ GD|GBdg|B/c/B/A/ GB|cAA2|!
B/c/B/A/ GD|GBdg|e/d/c/B/ Ad|cA A::!
d|g/f/g/a/ ba/g/|adBG|g/f/g/a/ bg/a/|addf|!
g/f/g/a/ b/a/g/f/|e/d/e/f/ g/f/e/d/|e/d/c/B/ A/B/c/d/|BG G:|

